X: 6509
T: Cat Wants Out Again, The
R: slide
M: 12/8
K: Adorian
|:A2A e2 d efg e2c|A2A edc d2B G2B|
A2A e2d efg e2g|a2e edc e2A A2G:|
|:f2f fef d2f e2d|e2A cBA e2A c2e|
f2f fef d2f e2d|1 ecA B2c B2A ABc:|2 ecA B2c B2E E2B||

